X:1001
%%stretchlast 1
T:Oslo Waltz, The
C:Joe Buchanan's Scottish Tome - Page 587.0
I:587 0
Z:Carl Allison
R:Waltz
L:1/4
M:3/4
K:G
((3d/^c/d/) | "G"e/d/ B/d/ G/B/ | "C"D G B | "G"E3 | D3|
"D"G F>A | "D"d2 c | "G"B>A G/A/ | "G"B2 ((3d/c/d/) |
"G"e/d/ B/d/ G/B/ | "C"D G>B | "G"E3 | D3 |
G F>A | "D"d2 F |1 "G"G G/4G/4 G :|2 "G"G3 |]
|:"^vibrato" "G"d3 | "C"g3 | "C"g f>e | "G"B3 |
"D7"d>e d | "D7"c B A | "G"G>F G/B/ | "G"d3 |
"G"d3 | "C"g3 | "C"g f>e | "G"B3 |
"D7"d>e d | "D7"c B A |1 "G"G3 :|2 "G"G2 ((3d/^c/d/) |]
"G"e/d/ B/d/ G/B/ | "C"D G>B | "G"E3 | D3 |
"D"G F>A | "D"d2 c | "G"B>A G/A/ | "G"B2 ((3d/c/d/) |
"G"e/d/ B/d/ G/B/ | "C"D G>B | "G"E3 | D3 |
"D"G F>A | "D"d2 F | "G"G3 | x3 | 
%%newpage
T:Oslo Waltz (cont), The
|:"C"e3 | "G7"e2 d | "C"c3- | "C"c3 |
"C"G c>e | "C"g2 ^g | "C"a3- | "C"a3 |
"G7"_f3 | "G7"d2 B | "G7"A3- | "G7"A3 | 
"G"G>F G | "G"D2 D | "C"G3 | "C"C3 | 
"C"e3 | "G7"e2 d | "C"c3 |"C"c3 |
"C"G c>e | "C"g2 ^g | "F"a3-| "F"a3 |
"F"^b3 | "F"b2 a | "C"g2 e | "C"c2 A |
"G7"G3 | "G7"d3 | "C"c3- | "C"c3 :|
((3d/c/d/) | "G"e/d/ B/d/ G/B/ | "C"D G B | "G"E3 | D3 | 
"D"G F>A | "D"d2 c | "G"B>A G/A/ | "G"B2 ((3d/^c/d/) |
"G"e/d/ B/d/ G/B/ | "C"D G>B | "G"E3 | D3 |
"D"G F>A | "D"d2 F | "G"G3 |1"^ALT." "G"G2 G/G/ G |]

